src/svg/it-twitter-square.svg

<svg width="24px" height="24px" viewBox="0 0 24 24" version="1.1"
     xmlns="http://www.w3.org/2000/svg">
  <title>Logo Twitter Square</title>
  <g stroke="none" stroke-width="1">
    <g>
      <rect x="0" y="0" width="24" height="24"
            fill="none"></rect>
    </g>
    <path
      d="M19.5,22 L4.5,22 C3.11928813,22 2,20.8807119 2,19.5 L2,4.5 C2,3.11928813 3.11928813,2 4.5,2 L19.5,2 C20.8807119,2 22,3.11928813 22,4.5 L22,19.5 C22,20.8807119 20.8807119,22 19.5,22 Z M9.68,17.08 C11.6226901,17.1015147 13.4925143,16.3413483 14.8691058,14.9703985 C16.2456974,13.5994486 17.0135363,11.7327621 17,9.79 L17,9.46 C17.5022867,9.09622426 17.9357288,8.64585082 18.28,8.13 C17.8090419,8.3354469 17.3103312,8.47023358 16.8,8.53 C17.3411932,8.21238349 17.7468794,7.70705511 17.94,7.11 C17.4347685,7.41299447 16.8793199,7.62298115 16.3,7.73 C15.8201367,7.21235971 15.1458461,6.91871703 14.44,6.92 C13.0206282,6.92 11.87,8.07062819 11.87,9.49 C11.8729719,9.68525027 11.8964338,9.87964905 11.94,10.07 C9.86494416,9.97881272 7.928318,9.0032191 6.62,7.39 C5.9486091,8.56660787 6.29734842,10.0618277 7.42,10.82 C7.01460818,10.7993009 6.61866723,10.6900758 6.26,10.5 L6.26,10.5 C6.2585015,11.7201279 7.11510758,12.7731266 8.31,13.02 C8.09187253,13.0806897 7.86641087,13.1109756 7.64,13.11 C7.47874085,13.109236 7.31795462,13.0924875 7.16,13.06 C7.49101444,14.1055398 8.45345449,14.8223362 9.55,14.84 C8.65177254,15.5753163 7.53071303,15.9842562 6.37,16 C6.16679475,16.0102065 5.96320525,16.0102065 5.76,16 C6.93002619,16.7486726 8.29095279,17.1444523 9.68,17.14 L9.68,17.08 Z"
    ></path>
  </g>
</svg>

<?xml version="1.0" encoding="utf-8"?>
<!-- Generator: Adobe Illustrator 25.4.1, SVG Export Plug-In . SVG Version: 6.00 Build 0)  -->
<svg version="1.1" id="Livello_1" xmlns="http://www.w3.org/2000/svg" xmlns:xlink="http://www.w3.org/1999/xlink" x="0px" y="0px"
	 viewBox="0 0 24 24" style="enable-background:new 0 0 24 24;" xml:space="preserve">
<path d="M19.5,22h-15C3.1,22,2,20.9,2,19.5v-15C2,3.1,3.1,2,4.5,2h15C20.9,2,22,3.1,22,4.5v15C22,20.9,20.9,22,19.5,22z M9.7,17.1
	c1.9,0,3.8-0.7,5.2-2.1S17,11.7,17,9.8V9.5c0.5-0.4,0.9-0.8,1.3-1.3c-0.5,0.2-1,0.3-1.5,0.4c0.5-0.3,0.9-0.8,1.1-1.4
	c-0.5,0.3-1.1,0.5-1.6,0.6c-0.5-0.5-1.2-0.8-1.9-0.8c-1.4,0-2.6,1.2-2.6,2.6c0,0.2,0,0.4,0.1,0.6C9.9,10,7.9,9,6.6,7.4
	c-0.7,1.2-0.3,2.7,0.8,3.4c-0.4,0-0.8-0.1-1.2-0.3l0,0c0,1.2,0.9,2.3,2.1,2.5c-0.2,0.1-0.4,0.1-0.7,0.1c-0.2,0-0.3,0-0.5,0
	c0.3,1,1.3,1.8,2.4,1.8c-0.9,0.7-2,1.1-3.2,1.2c-0.2,0-0.4,0-0.6,0C6.9,16.7,8.3,17.1,9.7,17.1L9.7,17.1z"/>
</svg>
